**kern	**kern	**text	**kern	**text	**kern	**text	**kern	**text
*part5	*part4	*part4	*part3	*part3	*part2	*part2	*part1	*part1
*staff5	*staff4	*staff4	*staff3	*staff3	*staff2	*staff2	*staff1	*staff1
*I"Bass V.P	*I"3rd	*	*I"2nd	*	*I"1st	*	*I"Lead	*
*I'Bass	*I'3rd	*	*I'2nd	*	*I'1st	*	*I'Lead	*
*clefF4	*clefGv2	*	*clefG2	*	*clefG2	*	*clefG2	*
*k[f#c#]	*k[f#c#]	*	*k[f#c#]	*	*k[f#c#]	*	*k[f#c#]	*
*M4/4	*M4/4	*	*M4/4	*	*M4/4	*	*M4/4	*
=1	=1	=1	=1	=1	=1	=1	=1	=1
*MM92	*MM92	*	*MM92	*	*MM92	*	*MM92	*
4.D	2d	ha	2f#	ha	4a	lan	1r	.
.	.	.	.	.	4dd	lan	.	.
8D	.	.	.	.	.	.	.	.
4.C#	2c#	ah	2e	ah	4cc#	lan	.	.
.	.	.	.	.	4a	lan	.	.
8C#	.	.	.	.	.	.	.	.
=2	=2	=2	=2	=2	=2	=2	=2	=2
4.BB	2d	ha	4d	lan	2b	ha	1r	.
.	.	.	4g	lan	.	.	.	.
8BB	.	.	.	.	.	.	.	.
4.C#	2c#	ah	4f#	lan	2a	ah	.	.
.	.	.	4e	lan	.	.	.	.
8C#	.	.	.	.	.	.	.	.
=3	=3	=3	=3	=3	=3	=3	=3	=3
4.D	2d	ha	2f#	ha	4a	lan	1r	.
.	.	.	.	.	4dd	lan	.	.
8D	.	.	.	.	.	.	.	.
4.C#	2c#	ah	2e	ah	4cc#	lan	.	.
.	.	.	.	.	4a	lan	.	.
8C#	.	.	.	.	.	.	.	.
=4	=4	=4	=4	=4	=4	=4	=4	=4
2BB	2B	fu	2d	fu	2g	fu	1r	.
2AA#X	2d	uf	2e	uh	2g	uh	.	.
=5	=5	=5	=5	=5	=5	=5	=5	=5
4.D	8r	.	8r	.	8r	.	8f#L	こ
.	8A	.	8d	.	8f#	tu	8fnJ	れ
.	8r	.	8r	.	8r	.	8f#XL	か
8D	8A	.	8d	.	8f#	tu	16gL	ら
.	.	.	.	.	.	.	[16aJJ	は
4AA	8r	.	8r	.	8r	.	8aL]	.
.	8A	.	8c#	.	8e	tu	8g	じ
4E	8r	.	8r	.	8r	.	8f#	ま
.	8A	.	8c#	.	8e	tu	8eJ	る
=6	=6	=6	=6	=6	=6	=6	=6	=6
4.BB	8r	.	8r	.	8r	.	8dL	あ
.	8A	.	8d	.	8f#	tu	8c#J	な
.	8r	.	8r	.	8r	.	8dL	た
8BB	8A	.	8d	.	8f#	tu	16eL	の
.	.	.	.	.	.	.	[16f#JJ	も
4AA	8r	.	8r	.	8r	.	8f#L]	.
.	8A	.	8d	.	8a	tu	8e	の
8DL	8r	.	8r	.	8r	.	8d	が
8AAJ	8A	.	8d	.	8a	tu	8c#J	た
=7	=7	=7	=7	=7	=7	=7	=7	=7
4.GG	8r	.	8r	.	8r	.	4B	り
.	8B	.	8d	.	8g	tu	.	.
.	8r	.	8r	.	8r	.	8BL	ず
8GG	8B	.	8d	.	8g	tu	16c#L	っ
.	.	.	.	.	.	.	[16dJJ	と
4FF#	8r	.	8r	.	8r	.	8dL]	.
.	8A	.	8d	.	8f#	tu	8A	な
8GGL	8r	.	8r	.	8r	.	8G	が
8FF#J	8A	.	8d	.	8f#	tu	8F#J	く
=8	=8	=8	=8	=8	=8	=8	=8	=8
4EE	8r	.	8r	.	8r	.	8GL	み
.	8B	.	8d	.	8g	tu	8F#	ち
4BB	8r	.	8r	.	8r	.	8G	は
.	8B	.	8d	.	8g	tu	8f#J	つ
4AA	4B	.	4d	.	4g	tun	8.dL	づ
.	.	.	.	.	.	.	16eJk	く
16AALL	4r	.	4r	.	4r	.	8e	よ
16BBJ	.	.	.	.	.	.	.	.
8C#J	.	.	.	.	.	.	8r	.
=9	=9	=9	=9	=9	=9	=9	=9	=9
4.D	8r	.	8r	.	8r	.	8f#L	に
.	8A	.	8d	.	8f#	tu	8fnJ	じ
.	8r	.	8r	.	8r	.	8f#XL	い
8D	8A	.	8d	.	8f#	tu	16gL	ろ
.	.	.	.	.	.	.	[16aJJ	の
4AA	8r	.	8r	.	8r	.	8aL]	　　
.	8A	.	8c#	.	8e	tu	8g	あ
8AAL	8r	.	8r	.	8r	.	8f#	め
8AA#XJ	8A	.	8c#	.	8e	tu	8eJ	ふ
=10	=10	=10	=10	=10	=10	=10	=10	=10
4.BB	8r	.	8r	.	8r	.	8dL	り
.	8A	.	8d	.	8f#	tu	8c#J	そ
.	8r	.	8r	.	8r	.	8dL	そ
8BB	8A	.	8d	.	8f#	tu	16eL	げ
.	.	.	.	.	.	.	[16f#JJ	ば
8AAL	4r	.	4r	.	4r	.	8f#]	.
8D	.	.	.	.	.	.	8r	.
8C#	4r	.	4c#	そ	4r	.	4A	そ
8AAJ	.	.	.	.	.	.	.	.
=11	=11	=11	=11	=11	=11	=11	=11	=11
4GG	2B	.	4B	ら	2g	ha	4G	ら
8DL	.	.	8dL	は	.	.	8f#L	は
8GGJ	.	.	8dJ	た	.	.	8f#J	た
4AA	2A	.	4c#	か	2e	ah	4e	か
8C#L	.	.	8dL	な	.	.	8dL	な
8EJ	.	.	[8dJ	る	.	.	[8dJ	る
=12	=12	=12	=12	=12	=12	=12	=12	=12
4D	4.A	.	2d]	.	4.f#	fu	2d]	.
4D	.	.	.	.	.	.	.	.
.	4.A	.	.	.	4.d	uh	.	.
4D	.	.	2r	.	.	.	2r	.
8DL	4r	.	.	.	4r	.	.	.
8C#J	.	.	.	.	.	.	.	.
=13	=13	=13	=13	=13	=13	=13	=13	=13
4.BB	2B	.	2d	.	2f#	fu	8BL	ま
.	.	.	.	.	.	.	8d	ぶ
.	.	.	.	.	.	.	8f#	し
8BB	.	.	.	.	.	.	8bJ	い
4AA	2d	.	2f#	.	2a	uh	4a	え
8DL	.	.	.	.	.	.	4f#	が
8AAJ	.	.	.	.	.	.	.	.
=14	=14	=14	=14	=14	=14	=14	=14	=14
4GG	4d	.	4g	.	4b	tu	8gL	お
.	.	.	.	.	.	.	8a	の
4AA	4e	.	4a	.	4cc#	ru	8e	お
.	.	.	.	.	.	.	8f#J	く
4D	4d	.	4f#	.	4a	ru	4f#	に
8DL	4c#	.	4e	.	4a	ru	4r	.
8C#J	.	.	.	.	.	.	.	.
=15	=15	=15	=15	=15	=15	=15	=15	=15
4BB	2B	.	2d	.	2f#	fu	4f#	か
4BB	.	.	.	.	.	.	4b	な
8AAL	2d	.	2f#	.	2a	uh	4cc#	し
8D	.	.	.	.	.	.	.	.
8C#	.	.	.	.	.	.	4dd	い
8AAJ	.	.	.	.	.	.	.	.
=16	=16	=16	=16	=16	=16	=16	=16	=16
4GG	4B	.	4d	.	4g	wo	8f#L	お
.	.	.	.	.	.	.	8e	と
4AA	4c#	.	4e	.	4a	oh	8e	が
.	.	.	.	.	.	.	8dJ	す
4D	4A	.	4d	.	4f#	oh	4d	る
8DL	4r	.	4r	.	4r	.	4r	.
8C#J	.	.	.	.	.	.	.	.
=17	=17	=17	=17	=17	=17	=17	=17	=17
4.BB	2B	.	2d	.	2f#	fu	8BL	よ
.	.	.	.	.	.	.	8d	り
.	.	.	.	.	.	.	8f#	そ
8BB	.	.	.	.	.	.	8bJ	っ
4AA	2d	.	2f#	.	2a	uh	4a	て
8DL	.	.	.	.	.	.	4f#	い
8AAJ	.	.	.	.	.	.	.	.
=18	=18	=18	=18	=18	=18	=18	=18	=18
4GG	4d	.	4g	.	4b	tu	8gL	ま
.	.	.	.	.	.	.	8a	が
4AA	4e	.	4a	.	4cc#	ru	8e	あ
.	.	.	.	.	.	.	8f#J	っ
4D	4d	.	4f#	.	4a	ru	4f#	て
8DL	4c#	.	4e	.	4a	ru	4r	.
8C#J	.	.	.	.	.	.	.	.
=19	=19	=19	=19	=19	=19	=19	=19	=19
4BB	2B	.	2d	.	2f#	fu	4f#	こ
4BB	.	.	.	.	.	.	4b	ん
8AAL	2d	.	2f#	.	2a	uh	4cc#	な
8D	.	.	.	.	.	.	.	.
8C#	.	.	.	.	.	.	4dd	に
8AAJ	.	.	.	.	.	.	.	.
=20	=20	=20	=20	=20	=20	=20	=20	=20
8.GG#XL	1B	.	1f#	uh	4r	.	8f#L	も
.	.	.	.	.	.	.	16eL	い
8.GG#	.	.	.	.	.	.	16eJJ	と
.	.	.	.	.	4dd	tun	4d	お
8EEJ	.	.	.	.	.	.	.	.
2GG#	.	.	.	.	4b	tun	4r	.
.	.	.	.	.	4f#	tun	8BL	し
.	.	.	.	.	.	.	[8eJ	い
=21	=21	=21	=21	=21	=21	=21	=21	=21
[2AA	4G	.	4B	.	4e	la	2e]	　　
.	4A	.	4c#	.	4f#	la	.	.
8AAL]	4B	.	4d	.	4g	la	2r	.
8AA	.	.	.	.	.	.	.	.
8BB	4c#	.	4e	.	4a	la	.	.
8C#J	.	.	.	.	.	.	.	.
=22	=22	=22	=22	=22	=22	=22	=22	=22
4.D	8dL	て	8r	.	8r	.	8f#L	て
.	8c#J	を	8d	.	8f#	tu	8fnJ	を
.	8dL	つ	8r	.	8r	.	8f#XL	つ
8D	16eL	な	8d	.	8f#	tu	16gL	な
.	[16f#JJ	げ	.	.	.	.	[16aJJ	げ
4AA	8f#L]	.	8r	.	8r	.	8aL]	　
.	8e	ば	8c#	.	8e	tu	8g	ば
4E	8d	あ	8r	.	8r	.	8f#	あ
.	8c#J	た	8c#	.	8e	tu	8eJ	た
=23	=23	=23	=23	=23	=23	=23	=23	=23
4.BB	8BL	た	8r	.	8r	.	8dL	た
.	8AJ	か	8d	.	8f#	tu	8c#J	か
.	8BL	い	8r	.	8r	.	8dL	い
8BB	16c#L	こ	8d	.	8f#	tu	16eL	こ
.	[16dJJ	と	.	.	.	.	[16f#JJ	と
4AA	8dL]	.	8r	.	8r	.	8f#L]	.
.	8c#	き	8f#	.	8a	tu	8e	き
8DL	8B	ら	8r	.	8r	.	8d	ら
8AAJ	8AJ	い	8f#	.	8a	tu	8c#J	い
=24	=24	=24	=24	=24	=24	=24	=24	=24
4.GG	4G	に	8r	.	8r	.	4B	に
.	.	.	8d	.	8f#	tu	.	.
.	4r	.	8r	.	8r	.	8BL	な
8GG	.	.	8d	.	8f#	tu	16c#L	れ
.	.	.	.	.	.	.	[16dJJ	ば
4FF#	8r	.	8r	.	8r	.	8dL]	.
.	8A	.	8d	.	8f#	tu	8A	ひ
8GGL	8r	.	8r	.	8r	.	8G	と
8FF#J	8A	.	8d	.	8f#	tu	8F#J	り
=25	=25	=25	=25	=25	=25	=25	=25	=25
4EE	8r	.	8r	.	8r	.	8GL	に
.	8B	.	8d	.	8g	tu	8F#	な
4BB	8r	.	8r	.	8r	.	8G	っ
.	8B	.	8d	.	8g	tu	8f#J	て
4AA	4B	.	4d	.	4g	tun	8.dL	く
.	.	.	.	.	.	.	16eJk	こ
16AALL	4r	.	4r	.	4r	.	8e	と
16BBJ	.	.	.	.	.	.	.	.
8C#J	.	.	.	.	.	.	8r	.
=26	=26	=26	=26	=26	=26	=26	=26	=26
4.D	8dL	ひ	8r	.	8r	.	8f#L	ひ
.	8c#J	と	8d	.	8f#	tu	8fnJ	と
.	8dL	つ	8r	.	8r	.	8f#XL	つ
8D	16eL	ひ	8d	.	8f#	tu	16gL	ひ
.	[16f#JJ	と	.	.	.	.	[16aJJ	と
4AA	8f#L]	　	8r	.	8r	.	8aL]	.
.	8e	つ	8c#	.	8e	tu	8g	つ
8AAL	8d	が	8r	.	8r	.	8f#	が
8AA#XJ	8c#J	あ	8c#	.	8e	tu	8eJ	あ
=27	=27	=27	=27	=27	=27	=27	=27	=27
4.BB	8BL	な	8r	.	8r	.	8dL	な
.	8AJ	た	8d	.	8f#	tu	8c#J	た
.	8BL	に	8r	.	8r	.	8dL	に
8BB	16c#L	な	8d	.	8f#	tu	16eL	な
.	[16dJJ	る	.	.	.	.	[16f#JJ	る
8AAL	8d]	.	4r	.	4r	.	8f#]	.
8D	8r	.	.	.	.	.	8r	.
8C#	4c#	.	4f#	.	4a	ha	4A	み
8AAJ	.	.	.	.	.	.	.	.
=28	=28	=28	=28	=28	=28	=28	=28	=28
4GG	2B	.	2d	.	2g	ah	4G	ち
8DL	.	.	.	.	.	.	8f#L	は
8GGJ	.	.	.	.	.	.	8f#J	つ
4AA	2c#	.	2e	.	2a	ah	4e	づ
8C#L	.	.	.	.	.	.	8dL	く
8EJ	.	.	.	.	.	.	[8dJ	よ
=29	=29	=29	=29	=29	=29	=29	=29	=29
4D	8AL	.	8f#L	.	8ddL	tu	2d]	.
.	8A	.	8f#	.	8a	ru	.	.
4D	8A	.	8f#	.	8a	ru	.	.
.	8EJ	.	8eJ	.	8gJ	ru	.	.
4D	4A	.	4d	.	4f#	ru	2r	.
8DL	4A	.	4c#	.	4e	ru	.	.
8C#J	.	.	.	.	.	.	.	.
=30	=30	=30	=30	=30	=30	=30	=30	=30
4.BB	2.B	.	2.d	.	2.f#	か　	2.f#	か
8BB	.	.	.	.	.	.	.	.
8BBL	.	.	.	.	.	.	.	.
8C#	.	.	.	.	.	.	.	.
8D	4d	.	4f#	.	4b	ぜ　	4b	ぜ
8FF#J	.	.	.	.	.	.	.	.
=31	=31	=31	=31	=31	=31	=31	=31	=31
4GG	4d	.	4f#	.	4a	が	4a	が
4r	4r	.	4r	.	4r	.	4r	.
2r	2r	.	2r	.	2r	.	8aL	は
.	.	.	.	.	.	.	8g	こ
.	.	.	.	.	.	.	8f#	ぶ
.	.	.	.	.	.	.	8eJ	き
=32	=32	=32	=32	=32	=32	=32	=32	=32
4.AA	2.A	.	2.c#	.	2.e	wo	4e	ぼ
.	.	.	.	.	.	.	4d	う
8E	.	.	.	.	.	.	.	.
4AA	.	.	.	.	.	.	4e	の
4C#	4c#	.	4e	.	4g	oh	4g	た
=33	=33	=33	=33	=33	=33	=33	=33	=33
8DL	2.A	.	2.d	.	2.f#	oh	2.f#	ね
8AA	.	.	.	.	.	.	.	.
8GG	.	.	.	.	.	.	.	.
[8FF#J	.	.	.	.	.	.	.	.
8FF#L]	.	.	.	.	.	.	.	.
8DJ	.	.	.	.	.	.	.	.
4C#	4r	.	4r	.	4r	.	8.r	.
.	.	.	.	.	.	.	16f#	ひ
=34	=34	=34	=34	=34	=34	=34	=34	=34
4.BB	2.B	.	2.d	.	2.f#	か	2.f#	か
8BB	.	.	.	.	.	.	.	.
8BBL	.	.	.	.	.	.	.	.
8C#	.	.	.	.	.	.	.	.
8D	4d	.	4f#	.	4b	り	4b	り
8FF#J	.	.	.	.	.	.	.	.
=35	=35	=35	=35	=35	=35	=35	=35	=35
4GG	4d	.	4f#	.	4a	が	4a	が　
4r	4r	.	4r	.	4r	.	4r	.
8GGL	2r	.	2r	.	2r	.	8aL	ゆ
8FF#	.	.	.	.	.	.	8g	め
8GG	.	.	.	.	.	.	8f#	の
8BBJ	.	.	.	.	.	.	8eJ	つ
=36	=36	=36	=36	=36	=36	=36	=36	=36
4.AA	2c#	.	2e	.	2a	fu	4e	ぼ
.	.	.	.	.	.	.	4d	み
8E	.	.	.	.	.	.	.	.
4AA	4d	.	4f#	.	4a	uh	4f#	に
4C#	4A	.	4c#	.	4e	uh	8c#L	な
.	.	.	.	.	.	.	8dJ	.
=37	=37	=37	=37	=37	=37	=37	=37	=37
8DL	2A	.	2d	.	2f#	wa	4d	る
8AA	.	.	.	.	.	.	.	.
8GG	.	.	.	.	.	.	4r	.
8FF#J	.	.	.	.	.	.	.	.
8r	4r	.	4r	.	4r	.	2r	.
8AAL	.	.	.	.	.	.	.	.
8AA	4A	.	4c#	.	4e	fu	.	.
8AAJ	.	.	.	.	.	.	.	.
=38	=38	=38	=38	=38	=38	=38	=38	=38
4.BB	2B	.	2d	.	2f#	uh	8BL	な
.	.	.	.	.	.	.	8d	く
.	.	.	.	.	.	.	8f#	し
8BB	.	.	.	.	.	.	8bJ	た
4AA	2d	.	2f#	.	2a	uh	4a	も
8DL	.	.	.	.	.	.	4f#	の
8AAJ	.	.	.	.	.	.	.	.
=39	=39	=39	=39	=39	=39	=39	=39	=39
4GG	4d	.	4g	.	4b	uh	8gL	を
.	.	.	.	.	.	.	8a	か
4AA	4e	.	4a	.	4cc#	wo	8e	ぞ
.	.	.	.	.	.	.	8f#J	え
4D	4d	.	4f#	.	4a	oh	4f#	て
8DL	4r	.	4r	.	4r	.	4r	.
8C#J	.	.	.	.	.	.	.	.
=40	=40	=40	=40	=40	=40	=40	=40	=40
4BB	2B	.	2d	.	2f#	fu	4f#	ひ
4BB	.	.	.	.	.	.	4b	と
8AAL	2d	.	2f#	.	2a	uh	4cc#	み
8D	.	.	.	.	.	.	.	.
8C#	.	.	.	.	.	.	4dd	と
8AAJ	.	.	.	.	.	.	.	.
=41	=41	=41	=41	=41	=41	=41	=41	=41
4GG	4B	.	4d	tu	8aL	ざ	8f#L	ざ
.	.	.	.	.	8g	す	8e	す
4AA	4c#	.	4e	ru	8g	よ	8e	よ
.	.	.	.	.	8f#J	り	8dJ	り
4D	4A	.	4d	ru	4f#	も	4d	も
8DL	4A	.	4c#	ru	4r	.	4r	.
8C#J	.	.	.	.	.	.	.	.
=42	=42	=42	=42	=42	=42	=42	=42	=42
4.BB	2B	.	2d	.	2f#	fu	8BL	あ
.	.	.	.	.	.	.	8d	る
.	.	.	.	.	.	.	8f#	も
8BB	.	.	.	.	.	.	8bJ	の
4AA	2d	.	2f#	.	2a	uh	4a	　を
8DL	.	.	.	.	.	.	8f#L	か
8AAJ	.	.	.	.	.	.	8f#J	ぞ
=43	=43	=43	=43	=43	=43	=43	=43	=43
4GG	4d	.	4g	.	4b	uh	8gL	え　
.	.	.	.	.	.	.	8a	た
4AA	4e	.	4a	.	4cc#	wo	8e	ほ
.	.	.	.	.	.	.	8f#J	う
4D	4d	.	4f#	.	4a	oh	4f#	が
8DL	4r	.	4r	.	4r	.	4r	.
8C#J	.	.	.	.	.	.	.	.
=44	=44	=44	=44	=44	=44	=44	=44	=44
4BB	2B	.	2d	.	2f#	fu	4f#	ひ
4BB	.	.	.	.	.	.	4b	と
8AAL	2d	.	2f#	.	2a	uh	4cc#	み
8D	.	.	.	.	.	.	.	.
8C#	.	.	.	.	.	.	4dd	か
8AAJ	.	.	.	.	.	.	.	.
=45	=45	=45	=45	=45	=45	=45	=45	=45
8.GG#XL	1B	.	1f#	.	4r	.	8f#L	が
.	.	.	.	.	.	.	16eL	や
8.GG#	.	.	.	.	.	.	16eJJ	き
.	.	.	.	.	4dd	tun	4d	.
8EEJ	.	.	.	.	.	.	.	.
2GG#	.	.	.	.	4b	tun	4r	.
.	.	.	.	.	4f#	tun	8BL	だ
.	.	.	.	.	.	.	[8eJ	す
=46	=46	=46	=46	=46	=46	=46	=46	=46
2AA	2c#	.	4e	lan	2a	fu	2e]	.
.	.	.	4f#	lan	.	.	.	.
2BB	2d	.	4g	lan	2b	uh	2r	.
.	.	.	4a	lan	.	.	.	.
=47	=47	=47	=47	=47	=47	=47	=47	=47
2Cn	2d#X	.	4g	lan	2ccn	uh	2r	.
.	.	.	4a	lan	.	.	.	.
2C#X	2e	.	4b	lan	2cc#X	uh	2r	.
.	.	.	4cc#	lan	.	.	.	.
=48	=48	=48	=48	=48	=48	=48	=48	=48
2D	8r	.	4r	.	4r	.	8f#L	あ
.	4.A	phon	.	.	.	.	8fnJ	な
.	.	.	4d	phon	8r	.	8f#XL	た
.	.	.	.	.	8f#	phon	16gL	が
.	.	.	.	.	.	.	[16aJJ	わ
2C#	8r	.	4r	.	4r	.	8aL]	.
.	4.A	phon	.	.	.	.	8g	ら
.	.	.	4c#	phon	8r	.	8f#	え
.	.	.	.	.	8e	phon	8eJ	ば
=49	=49	=49	=49	=49	=49	=49	=49	=49
2BB	4r	.	4r	.	4r	.	8dL	だ
.	.	.	.	.	.	.	8c#J	れ
.	4B	.	4d	.	4f#	fu	8dL	か
.	.	.	.	.	.	.	16eL	も
.	.	.	.	.	.	.	[16f#JJ	わ
2AA	2A	.	2c#	.	2e	uh	8f#L]	.
.	.	.	.	.	.	.	8e	ら
.	.	.	.	.	.	.	8d	う
.	.	.	.	.	.	.	8c#J	こ
=50	=50	=50	=50	=50	=50	=50	=50	=50
2GG	8r	.	4r	.	4r	.	4B	と
.	4.B	phon	.	.	.	.	.	.
.	.	.	4d	phon	8r	.	8BL	の
.	.	.	.	.	8g	phon	16c#L	り
.	.	.	.	.	.	.	[16dJJ	こ
2FF#	8r	.	4r	.	4r	.	8dL]	　
.	4.A	phon	.	.	.	.	8A	え
.	.	.	4d	phon	8r	.	8G	れ
.	.	.	.	.	8f#	phon	8F#J	ば
=51	=51	=51	=51	=51	=51	=51	=51	=51
2GG	2B	.	2d	.	2g	fu	8GL	つ
.	.	.	.	.	.	.	8F#	よ
.	.	.	.	.	.	.	8G	く
.	.	.	.	.	.	.	8f#J	な
4AA	4A	.	4d	.	4g	uh	8.dL	る
.	.	.	.	.	.	.	16eJk	こ
16AALL	4B	.	4e	.	4a	uh	8e	と
16BBJ	.	.	.	.	.	.	.	.
8C#J	.	.	.	.	.	.	8r	.
=52	=52	=52	=52	=52	=52	=52	=52	=52
4.D	4r	.	4r	.	4r	.	8f#L	ひ
.	.	.	.	.	.	.	8fnJ	と
.	4A	.	4d	.	4f#	fu	8f#XL	つ
8D	.	.	.	.	.	.	16gL	ひ
.	.	.	.	.	.	.	[16aJJ	と　
4AA	2A	.	2c#	.	2e	uh	8aL]	.
.	.	.	.	.	.	.	8g	つ
8AAL	.	.	.	.	.	.	8f#	が
8AA#XJ	.	.	.	.	.	.	8eJ	あ
=53	=53	=53	=53	=53	=53	=53	=53	=53
4.BB	2A	.	2d	.	2f#	fu	8dL	な
.	.	.	.	.	.	.	8c#J	た
.	.	.	.	.	.	.	8dL	に
8BB	.	.	.	.	.	.	16eL	な
.	.	.	.	.	.	.	[16f#JJ	る
8AAL	4d	.	4f#	.	4a	uh	8f#]	　
8D	.	.	.	.	.	.	8r	.
8C#	4f#	.	4a	.	4cc#	み	4A	み
8AAJ	.	.	.	.	.	.	.	.
=54	=54	=54	=54	=54	=54	=54	=54	=54
4GG	4d	.	4g	.	4b	ち	4G	ち
4D	8f#L	.	8aL	.	8ddL	は	8f#L	は
.	8f#J	.	8aJ	.	8ddJ	つ	8f#J	つ
4AA	4e	.	4g	.	4cc#	づ	4e	づ
4AA	8f#L	.	8aL	.	8ddL	く	8dL	く
.	[8f#J	.	[8aJ	.	[8ddJ	よ	[8dJ	よ　
=55	=55	=55	=55	=55	=55	=55	=55	=55
4.D	2.f#]	.	2.a]	.	2.dd]	.	2.d]	.
8AA	.	.	.	.	.	.	.	.
4GG	.	.	.	.	.	.	.	.
4FF#	4r	.	4r	.	4r	.	4r	.
=56	=56	=56	=56	=56	=56	=56	=56	=56
8D	4d	.	4d	lan	4r	.	4d	lan
4D	.	.	.	.	.	.	.	.
.	4f#	.	4a	la	4dd	la	4a	la
8D	.	.	.	.	.	.	.	.
8AA	4e	.	4g	la	4b	la	4g	la
4AA	.	.	.	.	.	.	.	.
.	4d	.	4f#	la	4a	la	4f#	la
8AA	.	.	.	.	.	.	.	.
=57	=57	=57	=57	=57	=57	=57	=57	=57
8BB	4d	.	4d	lan	4r	.	4d	lan
4BB	.	.	.	.	.	.	.	.
.	4f#	.	4a	la	4dd	la	4a	la
8BB	.	.	.	.	.	.	.	.
8AA	4e	.	4g	la	4b	la	4g	la
4AA	.	.	.	.	.	.	.	.
.	4d	.	4f#	la	4a	la	4f#	la
8AA	.	.	.	.	.	.	.	.
=58	=58	=58	=58	=58	=58	=58	=58	=58
8GG	4d	.	4d	.	4d	la	4d	la
4GG	.	.	.	.	.	.	.	.
.	8r	.	8r	.	8r	.	8r	.
8GG	8a	.	8a	.	8a	la	8a	la
8FF#	8aL	.	8aL	.	8aL	la	8aL	la
4FF#	8g	.	8g	.	8g	la	8g	la
.	8f#	.	8f#	.	8f#	la	8f#	la
8FF#	[8dJ	.	[8dJ	.	[8dJ	la	[8dJ	la
=59	=59	=59	=59	=59	=59	=59	=59	=59
8EE	8dL]	.	8dL]	.	8dL]	.	8dL]	.
4EE	8e	.	8c#	.	8g	la	8e	la　
.	8f#	.	8d	.	8a	la	8f#	la
8EE	[8eJ	.	[8c#J	.	[8gJ	la	[8eJ	la
8AA	4e]	.	4c#]	.	4g]	.	4e]	.
4AA	.	.	.	.	.	.	.	.
.	4r	.	4r	.	4r	.	4r	.
8AA	.	.	.	.	.	.	.	.
=60	=60	=60	=60	=60	=60	=60	=60	=60
8D	4d	.	4d	lan	4r	.	4d	lan
4D	.	.	.	.	.	.	.	.
.	4f#	.	4a	la	4dd	la	4a	la
8D	.	.	.	.	.	.	.	.
8AA	4e	.	4g	la	4b	la	4g	la
4AA	.	.	.	.	.	.	.	.
.	4d	.	4f#	la	4a	la	4f#	la
8AA	.	.	.	.	.	.	.	.
=61	=61	=61	=61	=61	=61	=61	=61	=61
8BB	4d	.	4d	lan	4r	.	4d	lan
4BB	.	.	.	.	.	.	.	.
.	4f#	.	4a	la	4dd	la	4a	la
8BB	.	.	.	.	.	.	.	.
8AA	4e	.	4g	la	4b	la	4g	la
4AA	.	.	.	.	.	.	.	.
.	4d	.	4f#	la	4a	la	4f#	la
8AA	.	.	.	.	.	.	.	.
=62	=62	=62	=62	=62	=62	=62	=62	=62
8GG	4d	.	4d	.	4d	la	4d	la
4GG	.	.	.	.	.	.	.	.
.	8r	.	8r	.	8r	.	8r	.
8D	8a	.	8a	.	8a	la	8a	la
8AA	8aL	.	8aL	.	8aL	la	8aL	la
4AA	8g	.	8g	.	8g	la	8g	la
.	8f#	.	8f#	.	8f#	la	8f#	la
8D	8dJ	.	8dJ	.	8dJ	la	[8dJ	la
=63	=63	=63	=63	=63	=63	=63	=63	=63
8r	8r	.	8r	.	8r	.	4d]	.
8DL	8dL	.	8f#L	.	8aL	tu	.	.
8AA	8c#	.	8e	.	8g	ru	4r	.
8DJ	8AJ	.	8dJ	.	8f#J	ru	.	.
2D	2A	.	2d	.	2f#	ru	2r	.
=64	=64	=64	=64	=64	=64	=64	=64	=64
1r	1r	.	8dL	こ	1rg	.	8f#L	こ
.	.	.	8c#J	れ	.	.	8fnJ	れ
.	.	.	8dL	か	.	.	8f#XL	か
.	.	.	16dL	ら	.	.	16gL	ら
.	.	.	[16f#JJ	は	.	.	[16aJJ	は
.	.	.	8f#L]	.	.	.	8aL]	　　
.	.	.	8e	じ	.	.	8g	じ
.	.	.	8d	ま	.	.	8f#	ま
.	.	.	8c#J	る	.	.	8eJ	る
=65	=65	=65	=65	=65	=65	=65	=65	=65
1r	4r	.	4r	.	4r	.	8dL	あ
.	.	.	.	.	.	.	8c#J	な
.	4d	.	4g	fu	4b	fu	8dL	た
.	.	.	.	.	.	.	16eL	ｎ
.	.	.	.	.	.	.	[16f#JJ	も
.	2c#	.	2f#	uh	4a	uh	8f#L]	.
.	.	.	.	.	.	.	8e	の
.	.	.	.	.	8aL	tu	8d	が
.	.	.	.	.	8cc#J	ru	8c#J	た
=66	=66	=66	=66	=66	=66	=66	=66	=66
1r	4.d	.	4.g	.	4.b	tu	4B	り
.	.	.	.	.	.	.	8BL	ず
.	8d	.	8g	.	8b	tu	16c#L	っ
.	.	.	.	.	.	.	[16dJJ	と
.	2d	.	8f#L	ru	2a	ru	8dL]	.
.	.	.	8f#	ru	.	.	8A	な
.	.	.	8e	ru	.	.	8G	が
.	.	.	8dJ	ru	.	.	8F#J	く
=67	=67	=67	=67	=67	=67	=67	=67	=67
2r	4.B	.	4.d	.	4.f#	tu	8GL	み
.	.	.	.	.	.	.	8F#	ち
.	.	.	.	.	.	.	8G	は
.	8B	.	8d	.	8f#	tu	8f#J	つ
8.AAL	4B	.	4d	.	4g	ru	8.dL	づ
16AAJk	.	.	.	.	.	.	16eJk	く
4AA#X	4c#	.	4e	.	4a	ru	8e	よ
.	.	.	.	.	.	.	8r	.
=68	=68	=68	=68	=68	=68	=68	=68	=68
4.BB	4r	.	4r	.	8aL	に	8f#L	に
.	.	.	.	.	8aJ	じ	8fnJ	じ
.	4B	.	4f#	ha	8aL	い	8f#XL	い
8BB	.	.	.	.	16bL	ろ	16gL	ろ
.	.	.	.	.	[16cc#JJ	の	[16aJJ	の
4.D	2A	.	2f#	ah	8cc#L]	.	8aL]	.
.	.	.	.	.	8b	あ	8g	あ
.	.	.	.	.	8a	め	8f#	め
8D	.	.	.	.	8gJ	ふ	8eJ	ふ
=69	=69	=69	=69	=69	=69	=69	=69	=69
4.GG	4r	.	4r	.	8f#L	り	8dL	り
.	.	.	.	.	8eJ	そ	8c#J	そ
.	4d	.	4f#	ha	8f#L	.	8dL	そ
8GG	.	.	.	.	16gL	げ	16eL	げ
.	.	.	.	.	[16aJJ	ば	[16f#JJ	ば
4FF#	2d	.	2f#	ah	8a]	.	8f#]	.
.	.	.	.	.	8r	.	8r	.
4FF#	.	.	.	.	4a	そ	4A	そ
=70	=70	=70	=70	=70	=70	=70	=70	=70
2EE	4.B	.	4.d	fu	4g	ら	4G	ら
.	.	.	.	.	8aL	は	8f#L	は
.	8B	.	8d	uh	8aJ	た	8f#J	た
2AA	2c#	.	2e	wa	4g	か	4e	か
.	.	.	.	.	8f#L	な	8dL	な
.	.	.	.	.	[8f#J	る	[8dJ	る
=71	=71	=71	=71	=71	=71	=71	=71	=71
1r	1r	.	1r	.	1f#]	.	1d]	.
=72	=72	=72	=72	=72	=72	=72	=72	=72
1D	1A	.	1d	.	1f#	.	1d	fu
==	==	==	==	==	==	==	==	==
*-	*-	*-	*-	*-	*-	*-	*-	*-
